X: 301
T: A Nip In The Air
R: jig
M: 6/8
K: Bdorian
|:Bfd cBA|B2A FAc|Bfd cdf|edc A3|
Bfd cBA|B2A FAB|E3 EFA|B3 BE/2F/2A:|
|:Bfd a2b|Bfd ecA|Bfd a2b|g3 fec|
Bfd a2b|Bfd ecA|E3 EFA|B3 BE/2F/2A:|

